images/3234835.svg

<?xml version="1.0" encoding="UTF-8"?>
<svg xmlns="http://www.w3.org/2000/svg" xmlns:xlink="http://www.w3.org/1999/xlink" width="300pt" height="300pt" viewBox="0 0 300 300" version="1.1">
<defs>
<g>
<symbol overflow="visible" id="glyph0-0">
<path style="stroke:none;" d="M 0.453125 1.59375 L 0.453125 -6.34375 L 4.953125 -6.34375 L 4.953125 1.59375 Z M 0.953125 1.09375 L 4.453125 1.09375 L 4.453125 -5.84375 L 0.953125 -5.84375 Z M 0.953125 1.09375 "/>
</symbol>
<symbol overflow="visible" id="glyph0-1">
<path style="stroke:none;" d="M 0.890625 -6.5625 L 2.078125 -6.5625 L 4.984375 -1.078125 L 4.984375 -6.5625 L 5.84375 -6.5625 L 5.84375 0 L 4.65625 0 L 1.75 -5.484375 L 1.75 0 L 0.890625 0 Z M 0.890625 -6.5625 "/>
</symbol>
<symbol overflow="visible" id="glyph0-2">
<path style="stroke:none;" d="M 0.890625 -6.5625 L 1.765625 -6.5625 L 1.765625 -3.875 L 5 -3.875 L 5 -6.5625 L 5.890625 -6.5625 L 5.890625 0 L 5 0 L 5 -3.125 L 1.765625 -3.125 L 1.765625 0 L 0.890625 0 Z M 0.890625 -6.5625 "/>
</symbol>
</g>
</defs>
<g id="surface49521">
<rect x="0" y="0" width="300" height="300" style="fill:rgb(100%,100%,100%);fill-opacity:1;stroke:none;"/>
<path style="fill:none;stroke-width:1.2;stroke-linecap:butt;stroke-linejoin:miter;stroke:rgb(0%,0%,0%);stroke-opacity:1;stroke-miterlimit:10;" d="M 264.75 105.640625 L 258.585938 127.464844 "/>
<path style="fill:none;stroke-width:1.2;stroke-linecap:butt;stroke-linejoin:miter;stroke:rgb(0%,0%,0%);stroke-opacity:1;stroke-miterlimit:10;" d="M 258.996094 106.371094 L 254.066406 123.832031 "/>
<path style="fill:none;stroke-width:1.2;stroke-linecap:butt;stroke-linejoin:miter;stroke:rgb(0%,0%,0%);stroke-opacity:1;stroke-miterlimit:10;" d="M 248.929688 89.386719 L 264.75 105.640625 "/>
<path style="fill:none;stroke-width:1.2;stroke-linecap:butt;stroke-linejoin:miter;stroke:rgb(0%,0%,0%);stroke-opacity:1;stroke-miterlimit:10;" d="M 258.585938 127.464844 L 236.601562 133.039062 "/>
<path style="fill:none;stroke-width:1.2;stroke-linecap:butt;stroke-linejoin:miter;stroke:rgb(0%,0%,0%);stroke-opacity:1;stroke-miterlimit:10;" d="M 236.601562 133.039062 L 220.78125 116.789062 "/>
<path style="fill:none;stroke-width:1.2;stroke-linecap:butt;stroke-linejoin:miter;stroke:rgb(0%,0%,0%);stroke-opacity:1;stroke-miterlimit:10;" d="M 238.84375 127.691406 L 226.1875 114.691406 "/>
<path style="fill:none;stroke-width:1.2;stroke-linecap:butt;stroke-linejoin:miter;stroke:rgb(0%,0%,0%);stroke-opacity:1;stroke-miterlimit:10;" d="M 220.78125 116.789062 L 226.945312 94.960938 "/>
<path style="fill:none;stroke-width:1.2;stroke-linecap:butt;stroke-linejoin:miter;stroke:rgb(0%,0%,0%);stroke-opacity:1;stroke-miterlimit:10;" d="M 220.78125 116.789062 L 198.796875 122.363281 "/>
<path style="fill:none;stroke-width:1.2;stroke-linecap:butt;stroke-linejoin:miter;stroke:rgb(0%,0%,0%);stroke-opacity:1;stroke-miterlimit:10;" d="M 226.945312 94.960938 L 248.929688 89.386719 "/>
<path style="fill:none;stroke-width:1.2;stroke-linecap:butt;stroke-linejoin:miter;stroke:rgb(0%,0%,0%);stroke-opacity:1;stroke-miterlimit:10;" d="M 230.457031 99.578125 L 248.042969 95.117188 "/>
<path style="fill:none;stroke-width:1.2;stroke-linecap:butt;stroke-linejoin:miter;stroke:rgb(0%,0%,0%);stroke-opacity:1;stroke-miterlimit:10;" d="M 198.796875 122.363281 L 195.714844 133.277344 "/>
<path style="fill:none;stroke-width:1.2;stroke-linecap:butt;stroke-linejoin:miter;stroke:rgb(0%,0%,100%);stroke-opacity:1;stroke-miterlimit:10;" d="M 195.714844 133.277344 L 192.632812 144.1875 "/>
<path style="fill:none;stroke-width:1.2;stroke-linecap:butt;stroke-linejoin:miter;stroke:rgb(0%,0%,100%);stroke-opacity:1;stroke-miterlimit:10;" d="M 192.632812 144.1875 L 181.640625 146.976562 "/>
<path style="fill:none;stroke-width:1.2;stroke-linecap:butt;stroke-linejoin:miter;stroke:rgb(0%,0%,0%);stroke-opacity:1;stroke-miterlimit:10;" d="M 181.640625 146.976562 L 170.648438 149.765625 "/>
<path style=" stroke:none;fill-rule:nonzero;fill:rgb(100%,100%,100%);fill-opacity:1;" d="M 185.632812 138.6875 L 199.632812 138.6875 L 199.632812 149.6875 L 185.632812 149.6875 Z M 185.632812 138.6875 "/>
<g style="fill:rgb(0%,0%,100%);fill-opacity:1;">
  <use xlink:href="#glyph0-1" x="185.632812" y="147.350586"/>
  <use xlink:href="#glyph0-2" x="192.610352" y="147.350586"/>
</g>
<path style="fill:none;stroke-width:1.2;stroke-linecap:butt;stroke-linejoin:miter;stroke:rgb(0%,0%,0%);stroke-opacity:1;stroke-miterlimit:10;" d="M 170.648438 149.765625 L 162.738281 141.636719 "/>
<path style="fill:none;stroke-width:1.2;stroke-linecap:butt;stroke-linejoin:miter;stroke:rgb(0%,0%,100%);stroke-opacity:1;stroke-miterlimit:10;" d="M 162.738281 141.636719 L 154.828125 133.511719 "/>
<path style="fill:none;stroke-width:1.2;stroke-linecap:butt;stroke-linejoin:miter;stroke:rgb(0%,0%,0%);stroke-opacity:1;stroke-miterlimit:10;" d="M 165.242188 151.859375 L 158.914062 145.359375 "/>
<path style="fill:none;stroke-width:1.2;stroke-linecap:butt;stroke-linejoin:miter;stroke:rgb(0%,0%,100%);stroke-opacity:1;stroke-miterlimit:10;" d="M 158.914062 145.359375 L 152.585938 138.859375 "/>
<path style="fill:none;stroke-width:1.2;stroke-linecap:butt;stroke-linejoin:miter;stroke:rgb(0%,0%,0%);stroke-opacity:1;stroke-miterlimit:10;" d="M 164.484375 171.589844 L 170.648438 149.765625 "/>
<path style="fill:none;stroke-width:1.2;stroke-linecap:butt;stroke-linejoin:miter;stroke:rgb(0%,0%,100%);stroke-opacity:1;stroke-miterlimit:10;" d="M 154.828125 133.511719 L 143.835938 136.300781 "/>
<path style="fill:none;stroke-width:1.2;stroke-linecap:butt;stroke-linejoin:miter;stroke:rgb(0%,0%,0%);stroke-opacity:1;stroke-miterlimit:10;" d="M 143.835938 136.300781 L 132.84375 139.085938 "/>
<path style=" stroke:none;fill-rule:nonzero;fill:rgb(100%,100%,100%);fill-opacity:1;" d="M 151.828125 128.011719 L 158.828125 128.011719 L 158.828125 139.011719 L 151.828125 139.011719 Z M 151.828125 128.011719 "/>
<g style="fill:rgb(0%,0%,100%);fill-opacity:1;">
  <use xlink:href="#glyph0-1" x="151.828125" y="136.674805"/>
</g>
<path style="fill:none;stroke-width:1.2;stroke-linecap:butt;stroke-linejoin:miter;stroke:rgb(0%,0%,0%);stroke-opacity:1;stroke-miterlimit:10;" d="M 132.84375 139.085938 L 129.761719 150 "/>
<path style="fill:none;stroke-width:1.2;stroke-linecap:butt;stroke-linejoin:miter;stroke:rgb(0%,0%,100%);stroke-opacity:1;stroke-miterlimit:10;" d="M 129.761719 150 L 126.679688 160.914062 "/>
<path style="fill:none;stroke-width:1.2;stroke-linecap:butt;stroke-linejoin:miter;stroke:rgb(0%,0%,0%);stroke-opacity:1;stroke-miterlimit:10;" d="M 137.363281 142.71875 L 134.898438 151.449219 "/>
<path style="fill:none;stroke-width:1.2;stroke-linecap:butt;stroke-linejoin:miter;stroke:rgb(0%,0%,100%);stroke-opacity:1;stroke-miterlimit:10;" d="M 134.898438 151.449219 L 132.429688 160.179688 "/>
<path style="fill:none;stroke-width:1.2;stroke-linecap:butt;stroke-linejoin:miter;stroke:rgb(0%,0%,0%);stroke-opacity:1;stroke-miterlimit:10;" d="M 132.84375 139.085938 L 117.023438 122.835938 "/>
<path style="fill:none;stroke-width:1.2;stroke-linecap:butt;stroke-linejoin:miter;stroke:rgb(0%,0%,100%);stroke-opacity:1;stroke-miterlimit:10;" d="M 126.679688 160.914062 L 134.589844 169.039062 "/>
<path style="fill:none;stroke-width:1.2;stroke-linecap:butt;stroke-linejoin:miter;stroke:rgb(0%,0%,0%);stroke-opacity:1;stroke-miterlimit:10;" d="M 134.589844 169.039062 L 142.5 177.164062 "/>
<path style=" stroke:none;fill-rule:nonzero;fill:rgb(100%,100%,100%);fill-opacity:1;" d="M 123.679688 155.414062 L 130.679688 155.414062 L 130.679688 166.414062 L 123.679688 166.414062 Z M 123.679688 155.414062 "/>
<g style="fill:rgb(0%,0%,100%);fill-opacity:1;">
  <use xlink:href="#glyph0-1" x="123.679688" y="164.077148"/>
</g>
<path style="fill:none;stroke-width:1.2;stroke-linecap:butt;stroke-linejoin:miter;stroke:rgb(0%,0%,0%);stroke-opacity:1;stroke-miterlimit:10;" d="M 142.5 177.164062 L 136.335938 198.992188 "/>
<path style="fill:none;stroke-width:1.2;stroke-linecap:butt;stroke-linejoin:miter;stroke:rgb(0%,0%,0%);stroke-opacity:1;stroke-miterlimit:10;" d="M 147.019531 180.796875 L 142.085938 198.257812 "/>
<path style="fill:none;stroke-width:1.2;stroke-linecap:butt;stroke-linejoin:miter;stroke:rgb(0%,0%,0%);stroke-opacity:1;stroke-miterlimit:10;" d="M 164.484375 171.589844 L 142.5 177.164062 "/>
<path style="fill:none;stroke-width:1.2;stroke-linecap:butt;stroke-linejoin:miter;stroke:rgb(0%,0%,0%);stroke-opacity:1;stroke-miterlimit:10;" d="M 136.335938 198.992188 L 152.15625 215.242188 "/>
<path style="fill:none;stroke-width:1.2;stroke-linecap:butt;stroke-linejoin:miter;stroke:rgb(0%,0%,0%);stroke-opacity:1;stroke-miterlimit:10;" d="M 152.15625 215.242188 L 174.140625 209.667969 "/>
<path style="fill:none;stroke-width:1.2;stroke-linecap:butt;stroke-linejoin:miter;stroke:rgb(0%,0%,0%);stroke-opacity:1;stroke-miterlimit:10;" d="M 153.042969 209.511719 L 170.628906 205.054688 "/>
<path style="fill:none;stroke-width:1.2;stroke-linecap:butt;stroke-linejoin:miter;stroke:rgb(0%,0%,0%);stroke-opacity:1;stroke-miterlimit:10;" d="M 174.140625 209.667969 L 180.304688 187.84375 "/>
<path style="fill:none;stroke-width:1.2;stroke-linecap:butt;stroke-linejoin:miter;stroke:rgb(0%,0%,0%);stroke-opacity:1;stroke-miterlimit:10;" d="M 180.304688 187.84375 L 164.484375 171.589844 "/>
<path style="fill:none;stroke-width:1.2;stroke-linecap:butt;stroke-linejoin:miter;stroke:rgb(0%,0%,0%);stroke-opacity:1;stroke-miterlimit:10;" d="M 174.898438 189.9375 L 162.242188 176.9375 "/>
<path style="fill:none;stroke-width:1.2;stroke-linecap:butt;stroke-linejoin:miter;stroke:rgb(0%,0%,0%);stroke-opacity:1;stroke-miterlimit:10;" d="M 117.023438 122.835938 L 123.1875 101.007812 "/>
<path style="fill:none;stroke-width:1.2;stroke-linecap:butt;stroke-linejoin:miter;stroke:rgb(0%,0%,0%);stroke-opacity:1;stroke-miterlimit:10;" d="M 112.503906 119.203125 L 117.4375 101.742188 "/>
<path style="fill:none;stroke-width:1.2;stroke-linecap:butt;stroke-linejoin:miter;stroke:rgb(0%,0%,0%);stroke-opacity:1;stroke-miterlimit:10;" d="M 95.039062 128.410156 L 117.023438 122.835938 "/>
<path style="fill:none;stroke-width:1.2;stroke-linecap:butt;stroke-linejoin:miter;stroke:rgb(0%,0%,0%);stroke-opacity:1;stroke-miterlimit:10;" d="M 123.1875 101.007812 L 107.367188 84.757812 "/>
<path style="fill:none;stroke-width:1.2;stroke-linecap:butt;stroke-linejoin:miter;stroke:rgb(0%,0%,0%);stroke-opacity:1;stroke-miterlimit:10;" d="M 107.367188 84.757812 L 85.382812 90.332031 "/>
<path style="fill:none;stroke-width:1.2;stroke-linecap:butt;stroke-linejoin:miter;stroke:rgb(0%,0%,0%);stroke-opacity:1;stroke-miterlimit:10;" d="M 106.480469 90.488281 L 88.894531 94.945312 "/>
<path style="fill:none;stroke-width:1.2;stroke-linecap:butt;stroke-linejoin:miter;stroke:rgb(0%,0%,0%);stroke-opacity:1;stroke-miterlimit:10;" d="M 85.382812 90.332031 L 79.21875 112.15625 "/>
<path style="fill:none;stroke-width:1.2;stroke-linecap:butt;stroke-linejoin:miter;stroke:rgb(0%,0%,0%);stroke-opacity:1;stroke-miterlimit:10;" d="M 79.21875 112.15625 L 95.039062 128.410156 "/>
<path style="fill:none;stroke-width:1.2;stroke-linecap:butt;stroke-linejoin:miter;stroke:rgb(0%,0%,0%);stroke-opacity:1;stroke-miterlimit:10;" d="M 84.625 110.0625 L 97.28125 123.0625 "/>
<path style="fill:none;stroke-width:1.2;stroke-linecap:butt;stroke-linejoin:miter;stroke:rgb(0%,0%,0%);stroke-opacity:1;stroke-miterlimit:10;" d="M 79.21875 112.15625 L 57.234375 117.734375 "/>
<path style="fill:none;stroke-width:1.2;stroke-linecap:butt;stroke-linejoin:miter;stroke:rgb(0%,0%,0%);stroke-opacity:1;stroke-miterlimit:10;" d="M 57.234375 117.734375 L 46.242188 120.519531 "/>
<path style="fill:none;stroke-width:1.2;stroke-linecap:butt;stroke-linejoin:miter;stroke:rgb(0%,0%,100%);stroke-opacity:1;stroke-miterlimit:10;" d="M 46.242188 120.519531 L 35.25 123.308594 "/>
<path style="fill:none;stroke-width:1.2;stroke-linecap:butt;stroke-linejoin:miter;stroke:rgb(0%,0%,0%);stroke-opacity:1;stroke-miterlimit:10;" d="M 53.722656 113.117188 L 44.929688 115.347656 "/>
<path style="fill:none;stroke-width:1.2;stroke-linecap:butt;stroke-linejoin:miter;stroke:rgb(0%,0%,100%);stroke-opacity:1;stroke-miterlimit:10;" d="M 44.929688 115.347656 L 36.136719 117.578125 "/>
<path style="fill:none;stroke-width:1.2;stroke-linecap:butt;stroke-linejoin:miter;stroke:rgb(0%,0%,0%);stroke-opacity:1;stroke-miterlimit:10;" d="M 56.347656 123.460938 L 47.554688 125.691406 "/>
<path style="fill:none;stroke-width:1.2;stroke-linecap:butt;stroke-linejoin:miter;stroke:rgb(0%,0%,100%);stroke-opacity:1;stroke-miterlimit:10;" d="M 47.554688 125.691406 L 38.761719 127.921875 "/>
<path style=" stroke:none;fill-rule:nonzero;fill:rgb(100%,100%,100%);fill-opacity:1;" d="M 28.25 117.808594 L 35.25 117.808594 L 35.25 128.808594 L 28.25 128.808594 Z M 28.25 117.808594 "/>
<g style="fill:rgb(0%,0%,100%);fill-opacity:1;">
  <use xlink:href="#glyph0-1" x="28.25" y="126.47168"/>
</g>
</g>
</svg>

<svg xmlns="http://www.w3.org/2000/svg" xmlns:xlink="http://www.w3.org/1999/xlink" width="300pt" height="300pt" viewBox="0 0 300 300"><defs><symbol overflow="visible"><path d="M.453 1.594v-7.938h4.5v7.938zm.5-.5h3.5v-6.938h-3.5zm0 0"/></symbol><symbol overflow="visible" id="a"><path d="M.89-6.563H2.08l2.906 5.485v-5.484h.86V0H4.656L1.75-5.484V0H.89zm0 0"/></symbol><symbol overflow="visible" id="b"><path d="M.89-6.563h.876v2.688H5v-2.688h.89V0H5v-3.125H1.766V0H.89zm0 0"/></symbol></defs><g><path fill="#fff" d="M0 0h300v300H0z"/><path d="M264.75 105.64l-6.164 21.825M258.996 106.37l-4.93 17.462M248.93 89.387l15.82 16.254M258.586 127.465l-21.984 5.574M236.602 133.04l-15.82-16.25M238.844 127.69l-12.656-13M220.78 116.79l6.165-21.83M220.78 116.79l-21.983 5.573M226.945 94.96l21.985-5.573M230.457 99.578l17.586-4.46M198.797 122.363l-3.082 10.914" stroke-width="1.2" stroke="#000" stroke-miterlimit="10" fill="none"/><path d="M195.715 133.277l-3.082 10.91M192.633 144.188l-10.992 2.79" stroke-width="1.2" stroke="#00f" stroke-miterlimit="10" fill="none"/><path d="M181.64 146.977l-10.992 2.79" stroke-width="1.2" stroke="#000" stroke-miterlimit="10" fill="none"/><path d="M185.633 138.688h14v11h-14zm0 0" fill="#fff"/><g fill="#00f"><use xlink:href="#a" x="185.633" y="147.351"/><use xlink:href="#b" x="192.61" y="147.351"/></g><path d="M170.648 149.766l-7.91-8.13" stroke-width="1.2" stroke="#000" stroke-miterlimit="10" fill="none"/><path d="M162.738 141.637l-7.91-8.125" stroke-width="1.2" stroke="#00f" stroke-miterlimit="10" fill="none"/><path d="M165.242 151.86l-6.328-6.5" stroke-width="1.2" stroke="#000" stroke-miterlimit="10" fill="none"/><path d="M158.914 145.36l-6.328-6.5" stroke-width="1.2" stroke="#00f" stroke-miterlimit="10" fill="none"/><path d="M164.484 171.59l6.164-21.824" stroke-width="1.2" stroke="#000" stroke-miterlimit="10" fill="none"/><path d="M154.828 133.512l-10.992 2.79" stroke-width="1.2" stroke="#00f" stroke-miterlimit="10" fill="none"/><path d="M143.836 136.3l-10.992 2.786" stroke-width="1.2" stroke="#000" stroke-miterlimit="10" fill="none"/><path d="M151.828 128.012h7v11h-7zm0 0" fill="#fff"/><use xlink:href="#a" x="151.828" y="136.675" fill="#00f"/><path d="M132.844 139.086L129.762 150" stroke-width="1.2" stroke="#000" stroke-miterlimit="10" fill="none"/><path d="M129.762 150l-3.082 10.914" stroke-width="1.2" stroke="#00f" stroke-miterlimit="10" fill="none"/><path d="M137.363 142.72l-2.465 8.73" stroke-width="1.2" stroke="#000" stroke-miterlimit="10" fill="none"/><path d="M134.898 151.45l-2.468 8.73" stroke-width="1.2" stroke="#00f" stroke-miterlimit="10" fill="none"/><path d="M132.844 139.086l-15.82-16.25" stroke-width="1.2" stroke="#000" stroke-miterlimit="10" fill="none"/><path d="M126.68 160.914l7.91 8.125" stroke-width="1.2" stroke="#00f" stroke-miterlimit="10" fill="none"/><path d="M134.59 169.04l7.91 8.124" stroke-width="1.2" stroke="#000" stroke-miterlimit="10" fill="none"/><path d="M123.68 155.414h7v11h-7zm0 0" fill="#fff"/><use xlink:href="#a" x="123.68" y="164.077" fill="#00f"/><path d="M142.5 177.164l-6.164 21.828M147.02 180.797l-4.934 17.46M164.484 171.59l-21.984 5.574M136.336 198.992l15.82 16.25M152.156 215.242l21.985-5.574M153.043 209.512l17.586-4.457M174.14 209.668l6.165-21.824M180.305 187.844l-15.82-16.254M174.898 189.938l-12.656-13M117.023 122.836l6.165-21.828M112.504 119.203l4.933-17.46M95.04 128.41l21.983-5.574M123.188 101.008l-15.82-16.25M107.367 84.758l-21.984 5.574M106.48 90.488l-17.585 4.457M85.383 90.332l-6.164 21.824M79.22 112.156l15.82 16.254M84.625 110.063l12.656 13M79.22 112.156l-21.986 5.578M57.234 117.734l-10.992 2.786" stroke-width="1.2" stroke="#000" stroke-miterlimit="10" fill="none"/><path d="M46.242 120.52l-10.992 2.79" stroke-width="1.2" stroke="#00f" stroke-miterlimit="10" fill="none"/><path d="M53.723 113.117l-8.793 2.23" stroke-width="1.2" stroke="#000" stroke-miterlimit="10" fill="none"/><path d="M44.93 115.348l-8.793 2.23" stroke-width="1.2" stroke="#00f" stroke-miterlimit="10" fill="none"/><path d="M56.348 123.46l-8.793 2.23" stroke-width="1.2" stroke="#000" stroke-miterlimit="10" fill="none"/><path d="M47.555 125.69l-8.793 2.232" stroke-width="1.2" stroke="#00f" stroke-miterlimit="10" fill="none"/><path d="M28.25 117.81h7v11h-7zm0 0" fill="#fff"/><use xlink:href="#a" x="28.25" y="126.472" fill="#00f"/></g></svg>
